icons/gi.svg

<?xml version="1.0" ?>
<svg xmlns="http://www.w3.org/2000/svg" xmlns:ev="http://www.w3.org/2001/xml-events" xmlns:xlink="http://www.w3.org/1999/xlink" baseProfile="full" height="600px" version="1.1" viewBox="2211.3868523936653 -1029.0983945267021 5812.162357078204 12297.138490314606" width="284px">
	<defs/>
	<path d="M 5830.0,10198.0 C 5602.0,10176.0 5413.0,10156.0 5411.0,10154.0 C 5402.0,10146.0 5432.0,9892.0 5450.0,9820.0 C 5460.0,9779.0 5471.0,9709.0 5475.0,9665.0 C 5478.0,9621.0 5483.0,9564.0 5486.0,9539.0 L 5492.0,9492.0 L 5343.0,9486.0 C 5262.0,9483.0 5147.0,9477.0 5088.0,9474.0 C 4987.0,9469.0 4982.0,9469.0 4975.0,9489.0 C 4967.0,9516.0 4930.0,9517.0 4930.0,9491.0 C 4930.0,9473.0 4916.0,9472.0 4693.0,9466.0 C 4562.0,9463.0 4411.0,9457.0 4358.0,9454.0 L 4261.0,9448.0 L 4266.0,9517.0 C 4270.0,9569.0 4267.0,9590.0 4256.0,9604.0 C 4241.0,9622.0 4239.0,9622.0 4221.0,9606.0 C 4205.0,9592.0 4203.0,9579.0 4208.0,9524.0 C 4212.0,9475.0 4209.0,9456.0 4197.0,9442.0 C 4184.0,9427.0 4183.0,9407.0 4192.0,9290.0 C 4197.0,9216.0 4203.0,9153.0 4206.0,9151.0 C 4208.0,9149.0 4446.0,9157.0 4735.0,9170.0 C 5024.0,9183.0 5262.0,9191.0 5265.0,9188.0 C 5268.0,9186.0 5243.0,9087.0 5210.0,8969.0 C 5147.0,8742.0 5148.0,8753.0 5196.0,8724.0 C 5213.0,8714.0 5210.0,8705.0 5153.0,8619.0 C 5119.0,8567.0 5079.0,8498.0 5065.0,8465.0 C 5050.0,8432.0 5011.0,8363.0 4978.0,8313.0 C 4925.0,8232.0 4915.0,8222.0 4899.0,8231.0 C 4886.0,8237.0 4880.0,8252.0 4880.0,8273.0 C 4880.0,8300.0 4874.0,8310.0 4846.0,8326.0 C 4828.0,8336.0 4722.0,8451.0 4610.0,8580.0 C 4499.0,8709.0 4404.0,8819.0 4400.0,8823.0 C 4392.0,8832.0 4056.0,8919.0 4028.0,8920.0 C 4018.0,8920.0 4007.0,8907.0 4000.0,8884.0 C 3993.0,8865.0 3990.0,8847.0 3992.0,8846.0 C 3993.0,8844.0 4067.0,8825.0 4155.0,8804.0 C 4314.0,8766.0 4315.0,8765.0 4358.0,8721.0 C 4381.0,8696.0 4400.0,8670.0 4400.0,8663.0 C 4400.0,8646.0 4357.0,8580.0 4346.0,8580.0 C 4342.0,8580.0 4311.0,8587.0 4278.0,8596.0 C 4245.0,8604.0 4206.0,8608.0 4190.0,8605.0 C 4173.0,8601.0 4135.0,8609.0 4083.0,8628.0 C 4040.0,8644.0 3948.0,8673.0 3879.0,8693.0 L 3755.0,8728.0 L 3347.0,8734.0 C 3123.0,8737.0 2932.0,8744.0 2922.0,8748.0 C 2913.0,8753.0 2859.0,8755.0 2803.0,8752.0 L 2700.0,8748.0 L 2700.0,8258.0 L 2700.0,7767.0 L 2752.0,7774.0 C 2780.0,7778.0 2806.0,7783.0 2809.0,7785.0 C 2812.0,7787.0 2811.0,7976.0 2806.0,8205.0 C 2802.0,8434.0 2800.0,8623.0 2803.0,8626.0 C 2806.0,8629.0 2829.0,8628.0 2854.0,8625.0 L 2900.0,8618.0 L 2900.0,8534.0 C 2900.0,8458.0 2902.0,8450.0 2919.0,8450.0 C 2946.0,8450.0 2948.0,8456.0 2956.0,8548.0 L 2963.0,8630.0 L 3011.0,8630.0 L 3059.0,8630.0 L 3062.0,8548.0 C 3065.0,8467.0 3066.0,8465.0 3090.0,8465.0 C 3115.0,8465.0 3115.0,8467.0 3118.0,8553.0 L 3121.0,8640.0 L 3169.0,8640.0 C 3227.0,8640.0 3230.0,8635.0 3230.0,8539.0 L 3230.0,8470.0 L 3260.0,8470.0 L 3290.0,8470.0 L 3290.0,8555.0 L 3290.0,8640.0 L 3334.0,8640.0 C 3387.0,8640.0 3390.0,8634.0 3390.0,8539.0 L 3390.0,8470.0 L 3420.0,8470.0 L 3450.0,8470.0 L 3450.0,8550.0 L 3450.0,8630.0 L 3504.0,8630.0 C 3567.0,8630.0 3564.0,8635.0 3575.0,8497.0 C 3581.0,8425.0 3584.0,8419.0 3602.0,8422.0 C 3619.0,8424.0 3629.0,8443.0 3651.0,8515.0 C 3677.0,8598.0 3678.0,8606.0 3663.0,8618.0 C 3647.0,8629.0 3647.0,8632.0 3665.0,8650.0 C 3685.0,8669.0 3686.0,8669.0 3820.0,8636.0 C 3894.0,8618.0 3991.0,8597.0 4035.0,8591.0 C 4110.0,8579.0 4210.0,8538.0 4210.0,8519.0 C 4210.0,8515.0 4189.0,8497.0 4164.0,8479.0 C 4133.0,8458.0 4112.0,8434.0 4099.0,8403.0 L 4080.0,8358.0 L 4152.0,8290.0 C 4225.0,8221.0 4251.0,8209.0 4289.0,8229.0 C 4301.0,8236.0 4318.0,8279.0 4340.0,8354.0 L 4374.0,8469.0 L 4419.0,8428.0 C 4569.0,8292.0 4560.0,8305.0 4557.0,8249.0 L 4555.0,8198.0 L 4600.0,8180.0 C 4654.0,8159.0 4662.0,8134.0 4626.0,8095.0 C 4603.0,8070.0 4600.0,8059.0 4600.0,7988.0 C 4600.0,7871.0 4599.0,7870.0 4482.0,7870.0 C 4429.0,7870.0 4367.0,7865.0 4346.0,7860.0 C 4301.0,7850.0 4256.0,7807.0 4217.0,7739.0 C 4196.0,7701.0 4193.0,7690.0 4203.0,7677.0 C 4214.0,7662.0 4219.0,7662.0 4259.0,7680.0 C 4304.0,7701.0 4330.0,7705.0 4330.0,7693.0 C 4330.0,7688.0 4333.0,7676.0 4336.0,7664.0 C 4340.0,7648.0 4330.0,7636.0 4286.0,7607.0 L 4230.0,7570.0 L 4245.0,7535.0 C 4253.0,7516.0 4267.0,7483.0 4276.0,7463.0 C 4285.0,7442.0 4306.0,7406.0 4322.0,7384.0 L 4352.0,7343.0 L 4326.0,7202.0 C 4312.0,7125.0 4300.0,7054.0 4300.0,7044.0 C 4300.0,7023.0 4401.0,6860.0 4414.0,6860.0 C 4418.0,6860.0 4449.0,6876.0 4482.0,6896.0 C 4520.0,6919.0 4547.0,6929.0 4558.0,6925.0 C 4572.0,6919.0 4560.0,6904.0 4496.0,6845.0 C 4429.0,6782.0 4418.0,6768.0 4422.0,6746.0 C 4425.0,6731.0 4423.0,6717.0 4418.0,6714.0 C 4413.0,6711.0 4410.0,6694.0 4412.0,6678.0 L 4415.0,6648.0 L 4228.0,6583.0 L 4041.0,6518.0 L 4070.0,6442.0 C 4151.0,6222.0 4192.0,6115.0 4194.0,6113.0 C 4201.0,6105.0 4325.0,6160.0 4323.0,6169.0 C 4321.0,6175.0 4293.0,6254.0 4259.0,6346.0 C 4226.0,6437.0 4200.0,6513.0 4202.0,6515.0 C 4213.0,6526.0 4356.0,6577.0 4362.0,6572.0 C 4366.0,6568.0 4398.0,6489.0 4434.0,6395.0 L 4499.0,6225.0 L 4539.0,6227.0 L 4579.0,6229.0 L 4597.0,6174.0 C 4613.0,6122.0 4613.0,6119.0 4596.0,6107.0 C 4579.0,6094.0 4583.0,6080.0 4659.0,5868.0 C 4703.0,5744.0 4740.0,5638.0 4740.0,5632.0 C 4740.0,5627.0 4669.0,5596.0 4583.0,5565.0 C 4496.0,5533.0 4411.0,5501.0 4393.0,5494.0 L 4362.0,5482.0 L 4385.0,5418.0 C 4398.0,5384.0 4413.0,5343.0 4419.0,5328.0 L 4429.0,5300.0 L 4464.0,5321.0 L 4498.0,5341.0 L 4483.0,5386.0 C 4475.0,5411.0 4469.0,5432.0 4471.0,5434.0 C 4478.0,5439.0 4633.0,5490.0 4635.0,5487.0 C 4636.0,5486.0 4650.0,5451.0 4665.0,5410.0 C 4681.0,5369.0 4696.0,5332.0 4700.0,5328.0 C 4703.0,5324.0 4729.0,5327.0 4758.0,5335.0 C 4798.0,5345.0 4812.0,5346.0 4815.0,5337.0 C 4821.0,5319.0 4850.0,5217.0 4850.0,5214.0 C 4850.0,5213.0 4773.0,5186.0 4679.0,5155.0 C 4541.0,5109.0 4510.0,5095.0 4515.0,5082.0 C 4518.0,5074.0 4530.0,5028.0 4542.0,4981.0 C 4554.0,4934.0 4626.0,4731.0 4702.0,4531.0 C 4819.0,4222.0 4838.0,4165.0 4825.0,4158.0 C 4817.0,4153.0 4810.0,4143.0 4810.0,4135.0 C 4810.0,4113.0 4769.0,4088.0 4754.0,4101.0 C 4736.0,4116.0 4668.0,4062.0 4675.0,4039.0 C 4678.0,4031.0 4672.0,4016.0 4662.0,4006.0 C 4645.0,3992.0 4641.0,3991.0 4631.0,4004.0 C 4620.0,4017.0 4612.0,4015.0 4569.0,3989.0 C 4528.0,3963.0 4522.0,3955.0 4530.0,3940.0 C 4538.0,3926.0 4534.0,3919.0 4515.0,3906.0 C 4502.0,3897.0 4481.0,3890.0 4470.0,3890.0 C 4458.0,3890.0 4432.0,3879.0 4412.0,3865.0 C 4383.0,3845.0 4373.0,3843.0 4364.0,3853.0 C 4345.0,3873.0 4051.0,4268.0 3565.0,4925.0 C 3294.0,5291.0 3104.0,5557.0 3100.0,5575.0 C 3096.0,5596.0 3088.0,5606.0 3072.0,5608.0 C 3034.0,5614.0 3020.0,5593.0 3020.0,5533.0 L 3020.0,5478.0 L 3502.0,4837.0 C 3767.0,4484.0 4096.0,4048.0 4234.0,3868.0 C 4484.0,3542.0 4485.0,3541.0 4525.0,3538.0 C 4558.0,3536.0 4565.0,3531.0 4565.0,3514.0 C 4565.0,3503.0 4593.0,3462.0 4626.0,3424.0 C 4660.0,3386.0 4699.0,3332.0 4713.0,3304.0 C 4727.0,3277.0 4746.0,3248.0 4754.0,3241.0 C 4763.0,3233.0 4770.0,3213.0 4770.0,3194.0 C 4770.0,3176.0 4775.0,3158.0 4780.0,3155.0 C 4786.0,3152.0 4790.0,3135.0 4790.0,3118.0 C 4790.0,3102.0 4799.0,3077.0 4810.0,3063.0 C 4821.0,3049.0 4830.0,3029.0 4830.0,3018.0 C 4830.0,3007.0 4843.0,2993.0 4865.0,2983.0 C 4900.0,2967.0 4900.0,2967.0 4928.0,2993.0 C 4943.0,3008.0 4963.0,3020.0 4972.0,3020.0 C 4980.0,3020.0 4993.0,3027.0 5000.0,3035.0 C 5018.0,3057.0 5050.0,3054.0 5050.0,3031.0 C 5050.0,2997.0 5061.0,2981.0 5094.0,2970.0 C 5140.0,2955.0 5157.0,2906.0 5135.0,2854.0 C 5106.0,2785.0 5094.0,2778.0 5020.0,2785.0 C 4980.0,2789.0 4944.0,2799.0 4927.0,2812.0 C 4911.0,2823.0 4892.0,2829.0 4882.0,2825.0 C 4868.0,2820.0 4877.0,2807.0 4927.0,2759.0 C 4985.0,2703.0 4991.0,2700.0 5037.0,2700.0 C 5105.0,2700.0 5125.0,2678.0 5116.0,2615.0 C 5109.0,2572.0 5111.0,2567.0 5151.0,2520.0 C 5190.0,2474.0 5197.0,2470.0 5237.0,2470.0 C 5272.0,2470.0 5280.0,2467.0 5280.0,2451.0 C 5280.0,2436.0 5290.0,2431.0 5325.0,2426.0 C 5358.0,2421.0 5375.0,2412.0 5390.0,2390.0 C 5417.0,2352.0 5417.0,2284.0 5389.0,2254.0 C 5370.0,2234.0 5369.0,2228.0 5380.0,2159.0 C 5386.0,2118.0 5394.0,2059.0 5397.0,2026.0 C 5401.0,1980.0 5407.0,1966.0 5421.0,1963.0 C 5433.0,1960.0 5440.0,1949.0 5440.0,1934.0 C 5440.0,1920.0 5450.0,1904.0 5465.0,1894.0 C 5479.0,1885.0 5490.0,1870.0 5490.0,1861.0 C 5490.0,1852.0 5499.0,1834.0 5509.0,1820.0 C 5526.0,1798.0 5527.0,1793.0 5514.0,1769.0 C 5494.0,1730.0 5516.0,1567.0 5540.0,1573.0 C 5552.0,1576.0 5561.0,1567.0 5570.0,1541.0 C 5577.0,1521.0 5591.0,1499.0 5601.0,1492.0 C 5612.0,1485.0 5620.0,1473.0 5620.0,1466.0 C 5620.0,1459.0 5632.0,1435.0 5646.0,1414.0 C 5697.0,1339.0 5694.0,1317.0 5614.0,1196.0 C 5596.0,1168.0 5578.0,1133.0 5575.0,1119.0 C 5571.0,1104.0 5558.0,1087.0 5544.0,1080.0 C 5528.0,1071.0 5520.0,1058.0 5520.0,1040.0 C 5520.0,1025.0 5515.0,998.0 5509.0,981.0 C 5502.0,960.0 5501.0,945.0 5507.0,939.0 C 5513.0,933.0 5512.0,900.0 5502.0,847.0 C 5492.0,786.0 5491.0,755.0 5498.0,725.0 C 5504.0,703.0 5506.0,673.0 5503.0,659.0 C 5500.0,643.0 5509.0,606.0 5524.0,568.0 C 5538.0,533.0 5550.0,490.0 5550.0,474.0 C 5550.0,452.0 5558.0,441.0 5580.0,428.0 C 5597.0,419.0 5620.0,391.0 5632.0,365.0 C 5646.0,337.0 5663.0,317.0 5677.0,314.0 C 5689.0,311.0 5702.0,299.0 5706.0,288.0 C 5709.0,278.0 5732.0,245.0 5758.0,217.0 C 5793.0,177.0 5813.0,163.0 5842.0,158.0 C 5864.0,154.0 5914.0,135.0 5955.0,115.0 C 5995.0,96.0 6035.0,80.0 6043.0,80.0 C 6050.0,80.0 6065.0,71.0 6075.0,60.0 C 6087.0,47.0 6106.0,40.0 6131.0,40.0 C 6152.0,40.0 6184.0,31.0 6202.0,20.0 C 6235.0,0.0 6304.0,-7.0 6327.0,8.0 C 6333.0,12.0 6341.0,33.0 6345.0,55.0 C 6358.0,136.0 6360.0,140.0 6383.0,140.0 C 6395.0,141.0 6416.0,147.0 6430.0,155.0 C 6444.0,163.0 6469.0,169.0 6487.0,170.0 C 6516.0,170.0 6520.0,174.0 6531.0,210.0 C 6542.0,247.0 6541.0,252.0 6522.0,273.0 C 6470.0,328.0 6473.0,516.0 6526.0,579.0 C 6539.0,595.0 6550.0,616.0 6550.0,626.0 C 6550.0,637.0 6562.0,672.0 6576.0,705.0 C 6590.0,738.0 6608.0,782.0 6615.0,802.0 C 6633.0,851.0 6675.0,904.0 6723.0,937.0 C 6759.0,962.0 6761.0,966.0 6760.0,1019.0 C 6759.0,1103.0 6765.0,1152.0 6779.0,1178.0 C 6789.0,1197.0 6788.0,1206.0 6771.0,1234.0 C 6746.0,1274.0 6744.0,1320.0 6766.0,1361.0 C 6777.0,1384.0 6779.0,1399.0 6772.0,1419.0 C 6764.0,1441.0 6767.0,1454.0 6786.0,1486.0 C 6799.0,1507.0 6810.0,1537.0 6810.0,1551.0 C 6810.0,1566.0 6817.0,1583.0 6825.0,1590.0 C 6833.0,1597.0 6842.0,1618.0 6845.0,1639.0 C 6855.0,1700.0 6866.0,1717.0 6900.0,1724.0 C 6928.0,1729.0 6932.0,1733.0 6928.0,1755.0 C 6924.0,1772.0 6928.0,1781.0 6940.0,1785.0 C 6965.0,1793.0 7061.0,1888.0 7088.0,1931.0 L 7110.0,1968.0 L 7065.0,2008.0 C 7030.0,2039.0 7020.0,2054.0 7020.0,2079.0 C 7020.0,2096.0 7011.0,2124.0 7001.0,2141.0 C 6988.0,2162.0 6983.0,2183.0 6987.0,2200.0 C 6990.0,2215.0 6985.0,2240.0 6977.0,2256.0 C 6969.0,2272.0 6958.0,2313.0 6951.0,2347.0 C 6939.0,2411.0 6945.0,2440.0 6975.0,2465.0 C 6982.0,2471.0 6990.0,2511.0 6994.0,2555.0 C 6997.0,2598.0 7005.0,2639.0 7010.0,2644.0 C 7016.0,2650.0 7020.0,2673.0 7020.0,2696.0 C 7020.0,2726.0 7027.0,2747.0 7044.0,2767.0 C 7064.0,2791.0 7065.0,2797.0 7054.0,2808.0 C 7030.0,2830.0 7037.0,2877.0 7069.0,2906.0 C 7095.0,2929.0 7150.0,3023.0 7150.0,3045.0 C 7150.0,3049.0 7163.0,3074.0 7179.0,3100.0 C 7207.0,3145.0 7281.0,3335.0 7300.0,3409.0 C 7307.0,3436.0 7305.0,3449.0 7291.0,3469.0 C 7271.0,3496.0 7263.0,3542.0 7257.0,3651.0 L 7253.0,3716.0 L 7291.0,3738.0 C 7320.0,3755.0 7330.0,3767.0 7330.0,3786.0 C 7330.0,3800.0 7337.0,3825.0 7346.0,3842.0 C 7355.0,3859.0 7360.0,3884.0 7357.0,3899.0 C 7338.0,3992.0 7330.0,4014.0 7316.0,4022.0 C 7284.0,4040.0 7210.0,4155.0 7180.0,4232.0 C 7142.0,4330.0 7132.0,4415.0 7153.0,4456.0 C 7166.0,4482.0 7166.0,4488.0 7154.0,4505.0 C 7146.0,4516.0 7141.0,4533.0 7144.0,4542.0 C 7146.0,4553.0 7139.0,4567.0 7124.0,4577.0 L 7100.0,4595.0 L 7125.0,4763.0 C 7139.0,4856.0 7150.0,4976.0 7150.0,5030.0 C 7150.0,5104.0 7154.0,5130.0 7165.0,5140.0 C 7173.0,5147.0 7180.0,5167.0 7180.0,5184.0 C 7180.0,5201.0 7187.0,5223.0 7195.0,5234.0 C 7205.0,5247.0 7207.0,5267.0 7203.0,5300.0 C 7198.0,5340.0 7201.0,5353.0 7219.0,5376.0 C 7230.0,5391.0 7240.0,5407.0 7240.0,5412.0 C 7240.0,5417.0 7249.0,5433.0 7260.0,5449.0 C 7277.0,5471.0 7279.0,5481.0 7271.0,5502.0 C 7266.0,5516.0 7254.0,5530.0 7246.0,5533.0 C 7237.0,5537.0 7230.0,5549.0 7230.0,5561.0 C 7230.0,5579.0 7234.0,5581.0 7256.0,5576.0 C 7283.0,5569.0 7282.0,5577.0 7254.0,5611.0 C 7242.0,5624.0 7244.0,5630.0 7269.0,5654.0 C 7291.0,5676.0 7297.0,5687.0 7291.0,5703.0 C 7286.0,5717.0 7289.0,5729.0 7302.0,5742.0 C 7312.0,5752.0 7320.0,5771.0 7320.0,5784.0 C 7320.0,5803.0 7313.0,5809.0 7285.0,5814.0 C 7244.0,5822.0 7243.0,5831.0 7265.0,5950.0 C 7279.0,6025.0 7279.0,6025.0 7254.0,6047.0 C 7222.0,6077.0 7222.0,6132.0 7255.0,6185.0 C 7293.0,6247.0 7285.0,6331.0 7232.0,6414.0 C 7209.0,6451.0 7207.0,6464.0 7209.0,6540.0 C 7210.0,6587.0 7222.0,6693.0 7236.0,6775.0 C 7257.0,6898.0 7265.0,6929.0 7285.0,6950.0 C 7298.0,6964.0 7327.0,7018.0 7351.0,7070.0 L 7393.0,7165.0 L 7398.0,7355.0 C 7406.0,7662.0 7405.0,7679.0 7381.0,7758.0 C 7361.0,7824.0 7359.0,7852.0 7359.0,8054.0 C 7359.0,8338.0 7397.0,8656.0 7441.0,8742.0 C 7457.0,8774.0 7460.0,8801.0 7460.0,8932.0 C 7461.0,9077.0 7462.0,9087.0 7485.0,9125.0 C 7508.0,9162.0 7510.0,9175.0 7510.0,9282.0 C 7510.0,9348.0 7517.0,9430.0 7525.0,9472.0 C 7542.0,9553.0 7536.0,9748.0 7516.0,9774.0 C 7510.0,9782.0 7239.0,9890.0 6914.0,10014.0 C 6480.0,10180.0 6313.0,10240.0 6284.0,10239.0 C 6263.0,10238.0 6058.0,10220.0 5830.0,10198.0" fill="pink"/>
</svg>

<?xml version="1.0" standalone="no"?>
<!DOCTYPE svg PUBLIC "-//W3C//DTD SVG 20010904//EN"
 "http://www.w3.org/TR/2001/REC-SVG-20010904/DTD/svg10.dtd">
<svg version="1.0" xmlns="http://www.w3.org/2000/svg"
 width="1024.000000pt" height="1024.000000pt" viewBox="0 0 1024.000000 1024.000000"
 preserveAspectRatio="xMidYMid meet">
<metadata>
Created by potrace 1.10, written by Peter Selinger 2001-2011
</metadata>
<g transform="translate(0.000000,1024.000000) scale(0.100000,-0.100000)"
fill="#000000" stroke="none">
<path d="M5830 10198 c-228 -22 -417 -42 -419 -44 -9 -8 21 -262 39 -334 10
-41 21 -111 25 -155 3 -44 8 -101 11 -126 l6 -47 -149 -6 c-81 -3 -196 -9
-255 -12 -101 -5 -106 -5 -113 15 -8 27 -45 28 -45 2 0 -18 -14 -19 -237 -25
-131 -3 -282 -9 -335 -12 l-97 -6 5 69 c4 52 1 73 -10 87 -15 18 -17 18 -35 2
-16 -14 -18 -27 -13 -82 4 -49 1 -68 -11 -82 -13 -15 -14 -35 -5 -152 5 -74
11 -137 14 -139 2 -2 240 6 529 19 289 13 527 21 530 18 3 -2 -22 -101 -55
-219 -63 -227 -62 -216 -14 -245 17 -10 14 -19 -43 -105 -34 -52 -74 -121 -88
-154 -15 -33 -54 -102 -87 -152 -53 -81 -63 -91 -79 -82 -13 6 -19 21 -19 42
0 27 -6 37 -34 53 -18 10 -124 125 -236 254 -111 129 -206 239 -210 243 -8 9
-344 96 -372 97 -10 0 -21 -13 -28 -36 -7 -19 -10 -37 -8 -38 1 -2 75 -21 163
-42 159 -38 160 -39 203 -83 23 -25 42 -51 42 -58 0 -17 -43 -83 -54 -83 -4 0
-35 7 -68 16 -33 8 -72 12 -88 9 -17 -4 -55 4 -107 23 -43 16 -135 45 -204 65
l-124 35 -408 6 c-224 3 -415 10 -425 14 -9 5 -63 7 -119 4 l-103 -4 0 -490 0
-491 52 7 c28 4 54 9 57 11 3 2 2 191 -3 420 -4 229 -6 418 -3 421 3 3 26 2
51 -1 l46 -7 0 -84 c0 -76 2 -84 19 -84 27 0 29 6 37 98 l7 82 48 0 48 0 3
-82 c3 -81 4 -83 28 -83 25 0 25 2 28 88 l3 87 48 0 c58 0 61 -5 61 -101 l0
-69 30 0 30 0 0 85 0 85 44 0 c53 0 56 -6 56 -101 l0 -69 30 0 30 0 0 80 0 80
54 0 c63 0 60 5 71 -133 6 -72 9 -78 27 -75 17 2 27 21 49 93 26 83 27 91 12
103 -16 11 -16 14 2 32 20 19 21 19 155 -14 74 -18 171 -39 215 -45 75 -12
175 -53 175 -72 0 -4 -21 -22 -46 -40 -31 -21 -52 -45 -65 -76 l-19 -45 72
-68 c73 -69 99 -81 137 -61 12 7 29 50 51 125 l34 115 45 -41 c150 -136 141
-123 138 -179 l-2 -51 45 -18 c54 -21 62 -46 26 -85 -23 -25 -26 -36 -26 -107
0 -117 -1 -118 -118 -118 -53 0 -115 -5 -136 -10 -45 -10 -90 -53 -129 -121
-21 -38 -24 -49 -14 -62 11 -15 16 -15 56 3 45 21 71 25 71 13 0 -5 3 -17 6
-29 4 -16 -6 -28 -50 -57 l-56 -37 15 -35 c8 -19 22 -52 31 -72 9 -21 30 -57
46 -79 l30 -41 -26 -141 c-14 -77 -26 -148 -26 -158 0 -21 101 -184 114 -184
4 0 35 16 68 36 38 23 65 33 76 29 14 -6 2 -21 -62 -80 -67 -63 -78 -77 -74
-99 3 -15 1 -29 -4 -32 -5 -3 -8 -20 -6 -36 l3 -30 -187 -65 -187 -65 29 -76
c81 -220 122 -327 124 -329 7 -8 131 47 129 56 -2 6 -30 85 -64 177 -33 91
-59 167 -57 169 11 11 154 62 160 57 4 -4 36 -83 72 -177 l65 -170 40 2 40 2
18 -55 c16 -52 16 -55 -1 -67 -17 -13 -13 -27 63 -239 44 -124 81 -230 81
-236 0 -5 -71 -36 -157 -67 -87 -32 -172 -64 -190 -71 l-31 -12 23 -64 c13
-34 28 -75 34 -90 l10 -28 35 21 34 20 -15 45 c-8 25 -14 46 -12 48 7 5 162
56 164 53 1 -1 15 -36 30 -77 16 -41 31 -78 35 -82 3 -4 29 -1 58 7 40 10 54
11 57 2 6 -18 35 -120 35 -123 0 -1 -77 -28 -171 -59 -138 -46 -169 -60 -164
-73 3 -8 15 -54 27 -101 12 -47 84 -250 160 -450 117 -309 136 -366 123 -373
-8 -5 -15 -15 -15 -23 0 -22 -41 -47 -56 -34 -18 15 -86 -39 -79 -62 3 -8 -3
-23 -13 -33 -17 -14 -21 -15 -31 -2 -11 13 -19 11 -62 -15 -41 -26 -47 -34
-39 -49 8 -14 4 -21 -15 -34 -13 -9 -34 -16 -45 -16 -12 0 -38 -11 -58 -25
-29 -20 -39 -22 -48 -12 -19 20 -313 415 -799 1072 -271 366 -461 632 -465
650 -4 21 -12 31 -28 33 -38 6 -52 -15 -52 -75 l0 -55 482 -641 c265 -353 594
-789 732 -969 250 -326 251 -327 291 -330 33 -2 40 -7 40 -24 0 -11 28 -52 61
-90 34 -38 73 -92 87 -120 14 -27 33 -56 41 -63 9 -8 16 -28 16 -47 0 -18 5
-36 10 -39 6 -3 10 -20 10 -37 0 -16 9 -41 20 -55 11 -14 20 -34 20 -45 0 -11
13 -25 35 -35 35 -16 35 -16 63 10 15 15 35 27 44 27 8 0 21 7 28 15 18 22 50
19 50 -4 0 -34 11 -50 44 -61 46 -15 63 -64 41 -116 -29 -69 -41 -76 -115 -69
-40 4 -76 14 -93 27 -16 11 -35 17 -45 13 -14 -5 -5 -18 45 -66 58 -56 64 -59
110 -59 68 0 88 -22 79 -85 -7 -43 -5 -48 35 -95 39 -46 46 -50 86 -50 35 0
43 -3 43 -19 0 -15 10 -20 45 -25 33 -5 50 -14 65 -36 27 -38 27 -106 -1 -136
-19 -20 -20 -26 -9 -95 6 -41 14 -100 17 -133 4 -46 10 -60 24 -63 12 -3 19
-14 19 -29 0 -14 10 -30 25 -40 14 -9 25 -24 25 -33 0 -9 9 -27 19 -41 17 -22
18 -27 5 -51 -20 -39 2 -202 26 -196 12 3 21 -6 30 -32 7 -20 21 -42 31 -49
11 -7 19 -19 19 -26 0 -7 12 -31 26 -52 51 -75 48 -97 -32 -218 -18 -28 -36
-63 -39 -77 -4 -15 -17 -32 -31 -39 -16 -9 -24 -22 -24 -40 0 -15 -5 -42 -11
-59 -7 -21 -8 -36 -2 -42 6 -6 5 -39 -5 -92 -10 -61 -11 -92 -4 -122 6 -22 8
-52 5 -66 -3 -16 6 -53 21 -91 14 -35 26 -78 26 -94 0 -22 8 -33 30 -46 17 -9
40 -37 52 -63 14 -28 31 -48 45 -51 12 -3 25 -15 29 -26 3 -10 26 -43 52 -71
35 -40 55 -54 84 -59 22 -4 72 -23 113 -43 40 -19 80 -35 88 -35 7 0 22 -9 32
-20 12 -13 31 -20 56 -20 21 0 53 -9 71 -20 33 -20 102 -27 125 -12 6 4 14 25
18 47 13 81 15 85 38 85 12 1 33 7 47 15 14 8 39 14 57 15 29 0 33 4 44 40 11
37 10 42 -9 63 -52 55 -49 243 4 306 13 16 24 37 24 47 0 11 12 46 26 79 14
33 32 77 39 97 18 49 60 102 108 135 36 25 38 29 37 82 -1 84 5 133 19 159 10
19 9 28 -8 56 -25 40 -27 86 -5 127 11 23 13 38 6 58 -8 22 -5 35 14 67 13 21
24 51 24 65 0 15 7 32 15 39 8 7 17 28 20 49 10 61 21 78 55 85 28 5 32 9 28
31 -4 17 0 26 12 30 25 8 121 103 148 146 l22 37 -45 40 c-35 31 -45 46 -45
71 0 17 -9 45 -19 62 -13 21 -18 42 -14 59 3 15 -2 40 -10 56 -8 16 -19 57
-26 91 -12 64 -6 93 24 118 7 6 15 46 19 90 3 43 11 84 16 89 6 6 10 29 10 52
0 30 7 51 24 71 20 24 21 30 10 41 -24 22 -17 69 15 98 26 23 81 117 81 139 0
4 13 29 29 55 28 45 102 235 121 309 7 27 5 40 -9 60 -20 27 -28 73 -34 182
l-4 65 38 22 c29 17 39 29 39 48 0 14 7 39 16 56 9 17 14 42 11 57 -19 93 -27
115 -41 123 -32 18 -106 133 -136 210 -38 98 -48 183 -27 224 13 26 13 32 1
49 -8 11 -13 28 -10 37 2 11 -5 25 -20 35 l-24 18 25 168 c14 93 25 213 25
267 0 74 4 100 15 110 8 7 15 27 15 44 0 17 7 39 15 50 10 13 12 33 8 66 -5
40 -2 53 16 76 11 15 21 31 21 36 0 5 9 21 20 37 17 22 19 32 11 53 -5 14 -17
28 -25 31 -9 4 -16 16 -16 28 0 18 4 20 26 15 27 -7 26 1 -2 35 -12 13 -10 19
15 43 22 22 28 33 22 49 -5 14 -2 26 11 39 10 10 18 29 18 42 0 19 -7 25 -35
30 -41 8 -42 17 -20 136 14 75 14 75 -11 97 -32 30 -32 85 1 138 38 62 30 146
-23 229 -23 37 -25 50 -23 126 1 47 13 153 27 235 21 123 29 154 49 175 13 14
42 68 66 120 l42 95 5 190 c8 307 7 324 -17 403 -20 66 -22 94 -22 296 0 284
38 602 82 688 16 32 19 59 19 190 1 145 2 155 25 193 23 37 25 50 25 157 0 66
7 148 15 190 17 81 11 276 -9 302 -6 8 -277 116 -602 240 -434 166 -601 226
-630 225 -21 -1 -226 -19 -454 -41z"/>
</g>
</svg>
